Obsidian-SemiLight/actions/22s/labplot-xy-plot-two-axes-centered.svg

<svg viewBox="0 0 22 22" xmlns="http://www.w3.org/2000/svg"><path d="m18 3v2.40625l-4 3.671875v.921875 1h-3v-7h-1v7h-7v1h7v3.242188l-3 2.753906v.003906h-4v1h4 .3847656l2.6152344-2.400391v2.400391h1v-3.318359l4-3.671875v-.009766h3v-1h-3v-1.4824219l4-3.671875v-.8457031-2zm-7 9h2.53125l-2.53125 2.324219z" fill="#4d4d4d"/></svg>

<svg xmlns="http://www.w3.org/2000/svg" viewBox="0 0 22 22">
  <defs id="defs3051">
    <style type="text/css" id="current-color-scheme">
      .ColorScheme-Text {
        color:#4d4d4d;
      }
      </style>
  </defs>
 <path 
     style="fill:currentColor;fill-opacity:1;stroke:none" 
     d="M 18 3 L 18 5.40625 L 14 9.078125 L 14 10 L 14 11 L 11 11 L 11 4 L 10 4 L 10 11 L 3 11 L 3 12 L 10 12 L 10 15.242188 L 7 17.996094 L 7 18 L 3 18 L 3 19 L 7 19 L 7.3847656 19 L 10 16.599609 L 10 19 L 11 19 L 11 15.681641 L 15 12.009766 L 15 12 L 18 12 L 18 11 L 15 11 L 15 9.5175781 L 19 5.8457031 L 19 5 L 19 3 L 18 3 z M 11 12 L 13.53125 12 L 11 14.324219 L 11 12 z "
     class="ColorScheme-Text"
     />
</svg>
